X:1
T:Title
%%score { ( 1 2 ) | ( 3 4 ) }
L:1/8
M:4/4
K:G
V:1 treble nm="Grand Piano"
V:2 treble 
V:3 treble 
V:4 treble 
V:1
 z4 z2[Q:1/4=100] z A | B2 B2 d3 G | [EA][EG][DF][CE] [B,D]2 [B,G]2 | A2 AA G2 A2 | B6 z A | %5
 B2 B2 d3 G | [EA][EG][DF][CE] [B,D]2 [B,G]2 | A2 ^GA B2 A2 | G6 z2 | A2 ^GA d3 c | BAGA B2 G2 | %11
 A2 ^GA [^CB][CA][C=G][CE] |[M:9/8] z2 F A c2- c z A |[M:4/4] B2 B2 d3 G | [EA][EG][DF]E D2 G2 | %15
 A2 ^GA B2 A2 |[M:3/4] G6 |] %17
V:2
 z4 z2 G2 | x8 | x8 | x8 | z4 z2 G2 | x8 | x8 | x8 | x8 | x8 | x8 | x8 |[M:9/8] D6- D G2 | %13
[M:4/4] x8 | x8 | x8 |[M:3/4] x6 |] %17
V:3
 z4 z2 B,C | [G,DG]2 [G,DG]2 [G,B,G]3[K:bass] [G,B,] | [C,C][C,C][C,G,][C,G,] [G,,G,]2 [G,,G,]2 | %3
 [D,CD]2 [D,CD][D,CD] [D,B,D]2 [D,F,D]2 | [G,D]6[K:treble] B,C | %5
 [G,DG]2 [G,DG]2 [G,B,G]3[K:bass] [G,B,] | [C,C][C,C][C,G,][C,G,] [G,,G,]2 [G,,G,]2 | %7
 [D,CD]2 [D,B,D][D,CE] [D,G,D]2 [D,F,C]2 | [G,B,]6 z2 | [D,CD]2 [D,B,D][D,CD] [D,B,D]3 [D,A,D] | %10
 [G,D][G,C][G,B,][G,C] [G,D]2 [G,B,]2 | z2 [D,D]2 z4 | %12
[M:9/8] D,2- [D,-A,] [D,-F,] [D,A,]2- [D,A,]B,[K:treble]C | %13
[M:4/4] [G,DG]2 [G,DG]2 [G,B,G]3 [G,B,] | [C,C][C,C][C,G,][C,G,C] [G,B,]2 [G,B,]2 | %15
 [D,CD]2 [D,B,D][D,CD] [D,G,D]2 [D,F,C]2 |[M:3/4] [G,B,]6 |] %17
V:4
 z4 z2 G,2 | x7[K:bass] x | x8 | x8 | z4 z2[K:treble] G,2 | x7[K:bass] x | x8 | x8 | x8 | x8 | x8 | %11
 [D,CD]2 B,C [A,,A,][A,,A,][A,,A,][A,,G,] |[M:9/8] .F,3 z3 z G,2[K:treble] |[M:4/4] x8 | x8 | x8 | %16
[M:3/4] x6 |] %17

